fs/data_trending_20_filled.svg

<svg viewBox="0 0 20 20" fill="none" xmlns="http://www.w3.org/2000/svg" height="1em" width="1em">
  <path d="M17 16.25C17 16.6642 16.6642 17 16.25 17L4.75 17C3.7835 17 3 16.2165 3 15.25V3.75C3 3.33579 3.33579 3 3.75 3C4.16421 3 4.5 3.33579 4.5 3.75L4.5 15.25C4.5 15.3881 4.61193 15.5 4.75 15.5L16.25 15.5C16.6642 15.5 17 15.8358 17 16.25ZM12 5.75C12 5.33579 12.3358 5 12.75 5H16.25C16.6642 5 17 5.33579 17 5.75V9.25C17 9.66421 16.6642 10 16.25 10C15.8358 10 15.5 9.66421 15.5 9.25V7.56063L11.5303 11.5303C11.3897 11.671 11.1989 11.75 11 11.75C10.8011 11.75 10.6103 11.671 10.4696 11.5303L9 10.0607L6.78033 12.2803C6.48744 12.5732 6.01256 12.5732 5.71967 12.2803C5.42678 11.9874 5.42678 11.5126 5.71967 11.2197L8.46967 8.46967C8.61032 8.32902 8.80109 8.25 9 8.25C9.19892 8.25 9.38968 8.32902 9.53033 8.46967L11 9.93934L14.4393 6.5H12.75C12.3358 6.5 12 6.16421 12 5.75Z" fill="#212121"/>
</svg>

<svg viewBox="0 0 20 20" fill="none" xmlns="http://www.w3.org/2000/svg" height="1em" width="1em">
  <path d="M17 16.25a.75.75 0 0 1-.75.75H4.75A1.75 1.75 0 0 1 3 15.25V3.75a.75.75 0 0 1 1.5 0v11.5c0 .138.112.25.25.25h11.5a.75.75 0 0 1 .75.75Zm-5-10.5a.75.75 0 0 1 .75-.75h3.5a.75.75 0 0 1 .75.75v3.5a.75.75 0 0 1-1.5 0V7.56l-3.97 3.97a.75.75 0 0 1-1.06 0L9 10.06l-2.22 2.22a.75.75 0 0 1-1.06-1.06l2.75-2.75a.75.75 0 0 1 1.06 0L11 9.94l3.44-3.44h-1.69a.75.75 0 0 1-.75-.75Z" fill="#212121"/>
</svg>
